wp-content/themes/lnob/assets/images/svgs/logos/lnob-logo.svg

<svg fill="none" height="96" viewBox="0 0 164 96" width="164" xmlns="http://www.w3.org/2000/svg"><path d="m49.1066 8.68652v17.09108c1.8961.122 3.7274.4827 5.4625 1.0549l6.1372-15.9506c-3.6514-1.28959-7.5466-2.05284-11.5997-2.19538z" fill="#e3243b"/><path d="m54.9876 6.79208c1.5626.62689 3.3372-.13148 3.964-1.69388.6266-1.56228-.1316-3.33679-1.6942-3.96369-1.5622-.626748-3.3368.13163-3.9635 1.69384-.6269 1.56258.1315 3.33698 1.6937 3.96373z" fill="#e3243b"/><path d="m34.8817 10.8145 6.1794 15.9395c1.7723-.5605 3.6422-.9019 5.5764-.992l.0001-17.08909c-4.1082.10964-8.0549.85793-11.7559 2.14159z" fill="#19486a"/><path d="m39.4059 7.00037c1.6834-.00627 3.0429-1.37595 3.0366-3.05938-.006-1.68323-1.3757-3.042745-3.0591-3.036673-1.6835.00627-3.043 1.375943-3.0367 3.059373.0063 1.68344 1.3759 3.04275 3.0592 3.03668z" fill="#19486a"/><path d="m32.5767 11.6972c-3.6782 1.5443-7.0674 3.6357-10.0724 6.1691l11.5146 12.627c1.4429-1.1429 3.031-2.1063 4.7337-2.8646z" fill="#00689d"/><path d="m25.3793 12.7467c1.5681-.6124 2.3428-2.3801 1.7305-3.948-.6125-1.56786-2.3801-2.34277-3.948-1.73046-1.5682.61237-2.3428 2.38006-1.7305 3.94796.6124 1.5682 2.3801 2.3428 3.948 1.7305z" fill="#00689d"/><path d="m20.6631 19.516c-2.8949 2.7667-5.3636 5.9738-7.3053 9.5087l15.3029 7.6229c.9738-1.6547 2.1549-3.1715 3.5089-4.5141z" fill="#56c02b"/><path d="m14.3738 18.9348c-1.1361-1.242-3.0642-1.3279-4.3062-.1918-1.24223 1.1365-1.32788 3.0645-.19172 4.3065 1.13642 1.242 3.06422 1.3276 4.30622.1915 1.2422-1.1362 1.3279-3.0643.1917-4.3062z" fill="#56c02b"/><path d="m8.86537 42.7949 17.03183 1.5275c.3044-1.9222.8614-3.7606 1.6296-5.482l-15.2875-7.6165c-1.6891 3.595-2.84722 7.486-3.37393 11.571z" fill="#0a97d9"/><path d="m6.35864 32.7124c-1.49992-.7643-3.33515-.1684-4.09994 1.3315-.76435 1.5-.1684 3.3352 1.33143 4.0997 1.50001.7646 3.33532.1685 4.09976-1.3311.76461-1.5001.16866-3.3353-1.33125-4.1001z" fill="#0a97d9"/><path d="m25.6479 46.7823-17.01652-1.5235c-.05331.8436-.08608 1.6949-.08608 2.5531 0 3.2638.40551 6.4347 1.15889 9.4649l16.43461-4.7145c-.3368-1.5312-.5172-3.1189-.5172-4.7504 0-.3439.0114-.6878.0263-1.0296z" fill="#3f7e44"/><path d="m3.65758 48.8475c-1.67456-.1728-3.171972 1.0446-3.344866 2.719-.172738 1.6747 1.044856 3.1722 2.719416 3.3449 1.67434.1729 3.17177-1.0447 3.34449-2.7193.17289-1.6743-1.0447-3.1718-2.71904-3.3446z" fill="#3f7e44"/><path d="m10.3808 59.6505c1.2438 3.9171 3.087 7.5669 5.4244 10.8438l13.6028-10.3372c-1.0838-1.6013-1.9685-3.3551-2.6042-5.2196z" fill="#bf8b2e"/><path d="m7.0305 64.7039c-1.62452.4423-2.5827 2.1176-2.14031 3.7419.44215 1.6241 2.11723 2.5822 3.74161 2.1401 1.6241-.4421 2.5825-2.1175 2.1401-3.7418-.4421-1.6241-2.11721-2.5821-3.7414-2.1402z" fill="#bf8b2e"/><path d="m30.9051 62.1212-13.6011 10.337c2.5297 3.1147 5.5256 5.8295 8.8822 8.0462l8.9828-14.5308c-1.5823-1.0944-3.0162-2.3914-4.2639-3.8524z" fill="#fd9d24"/><path d="m15.9354 78.3466c-1.3492 1.0072-1.6262 2.9169-.6192 4.2659 1.0069 1.3489 2.917 1.6264 4.2659.6193 1.349-1.0068 1.6261-2.9168.619-4.2658-1.0069-1.3489-2.9166-1.6264-4.2657-.6194z" fill="#fd9d24"/><path d="m28.286 81.802c3.4578 1.9791 7.2385 3.4449 11.2457 4.2985l3.1613-16.7874c-1.9133-.4463-3.7316-1.1411-5.4185-2.0491z" fill="#dd1367"/><path d="m33.2509 86.818c-1.4254-.8953-3.3068-.4657-4.2022.9596-.8956 1.4255-.466 3.3069.9593 4.2023 1.4255.8958 3.307.4663 4.2024-.9595.8955-1.4253.466-3.3069-.9595-4.2024z" fill="#dd1367"/><path d="m54.0419 86.4389-3.1629-16.7905c-1.0385.1503-2.1016.232-3.1839.232-.8689 0-1.7271-.0541-2.5693-.1522l-3.1647 16.8056c1.8729.2748 3.7864.4205 5.734.4205 2.1606 0 4.2813-.1777 6.3468-.5154z" fill="#fd6925"/><path d="m48.4602 89.433c-1.6524-.3217-3.2527.7571-3.5745 2.4093-.3217 1.6524.7571 3.2527 2.4093 3.5746 1.6524.3216 3.2529-.757 3.5744-2.4094.3218-1.6524-.757-3.2525-2.4092-3.5745z" fill="#fd6925"/><path d="m58.5346 67.0341c-1.63.9203-3.3857 1.6425-5.2359 2.1274l3.1663 16.805c3.9389-.905 7.6535-2.4073 11.041-4.4049z" fill="#a21942"/><path d="m63.914 86.1821c-1.6574.2952-2.7614 1.8782-2.4662 3.5354.2953 1.6571 1.8781 2.7614 3.5354 2.466 1.6572-.2951 2.7615-1.8779 2.466-3.5352-.2951-1.6572-1.8779-2.7615-3.5352-2.4662z" fill="#a21942"/><path d="m78.3624 72.0508-13.6139-10.2657c-1.2077 1.47-2.6016 2.7805-4.1442 3.8983l8.9722 14.5264c3.3298-2.2562 6.2941-5.0119 8.7859-8.159z" fill="#fcc30b"/><path d="m80.7061 78.8826c-.8726-1.4396-2.7469-1.8993-4.1865-1.0267-1.4397.8726-1.8992 2.7471-1.0266 4.1864.8726 1.4397 2.7469 1.8994 4.1866 1.0268 1.4396-.8726 1.8993-2.7469 1.0265-4.1865z" fill="#fcc30b"/><path d="m68.6087 54.8789c-.5948 1.7474-1.3995 3.3965-2.3885 4.9182l13.6443 10.2915c2.2161-3.1861 3.9675-6.7141 5.1639-10.4912z" fill="#26bde2"/><path d="m89.4849 65.2931c-1.3326-1.0283-3.2468-.7818-4.2751.5508-1.0285 1.3327-.7817 3.2466.5509 4.2752 1.3326 1.0284 3.2468.7818 4.2751-.5507 1.0285-1.3328.782-3.2467-.5509-4.2753z" fill="#26bde2"/><path d="m69.7537 47.0121c.0093.2663.0154.5303.0154.7958 0 1.6112-.1733 3.1819-.5058 4.6954l16.4327 4.7214c.7492-3.017 1.1488-6.1715 1.1488-9.4168 0-.8058-.0268-1.6058-.0762-2.4026z" fill="#ff3a21"/><path d="m92.9538 49.0748c-1.6138-.4792-3.3106.4404-3.7897 2.0542-.4794 1.6138.4405 3.3104 2.0543 3.7898 1.6139.4789 3.3104-.4406 3.7894-2.0545.4794-1.6137-.4402-3.3103-2.054-3.7895z" fill="#ff3a21"/><path d="m68.0004 39.1493c.7307 1.7046 1.2498 3.5152 1.5313 5.4036l17.0127-1.6057c-.5019-4.0279-1.6169-7.8684-3.2502-11.4218z" fill="#c5192d"/><path d="m93.6534 35.2828c-.1346-1.6779-1.6038-2.9293-3.2819-2.7947-1.6779.1342-2.9291 1.6037-2.7947 3.2815.1343 1.6783 1.6037 2.9296 3.2818 2.7951 1.678-.1346 2.9293-1.6039 2.7948-3.2819z" fill="#c5192d"/><path d="m75.0488 19.8301-11.5393 12.5952c1.3144 1.3501 2.4574 2.8664 3.3934 4.5151l15.2917-7.6225c-1.8941-3.5199-4.3101-6.7177-7.1458-9.4878z" fill="#4c9f38"/><path d="m86.318 19.8425c-.7301-1.5169-2.5515-2.1547-4.0684-1.4246-1.5167.73-2.1548 2.5516-1.4244 4.0683.7301 1.5169 2.5515 2.1547 4.0679 1.4246 1.5172-.73 2.1548-2.5513 1.4249-4.0683z" fill="#4c9f38"/><path d="m56.8682 27.7331c1.7423.7983 3.3626 1.817 4.8252 3.023l11.5392-12.5979c-3.039-2.6209-6.4854-4.7835-10.2264-6.3804z" fill="#dda63a"/><path d="m73.3492 7.67081c-1.2327-1.14685-3.1612-1.07706-4.3078.15528-1.1465 1.23248-1.0771 3.16121.1552 4.30781 1.2325 1.1467 3.1613 1.077 4.308-.1554 1.1464-1.2325 1.077-3.16096-.1554-4.30769z" fill="#dda63a"/><g fill="#000"><path d="m105.502 16.665h3.138v16.104h3.744v2.56h-6.882z"/><path d="m113.539 16.665h7.488v2.5603h-4.349v5.3403h3.11v2.5326h-3.11v5.6708h4.349v2.56h-7.488z"/><path d="m125.734 29.4106h2.505l-1.239-7.4875h-.027zm-3.936 5.9186 3.523-18.6642h3.579l3.551 18.6642h-3.221l-.578-3.4137h-3.331l-.55 3.4137z"/><path d="m142.141 16.665-3.551 18.664h-3.414l-3.551-18.664h3.193l2.147 13.0208h.028l2.202-13.0208z"/><path d="m143.159 16.665h7.488v2.5603h-4.35v5.3403h3.111v2.5326h-3.111v5.6708h4.35v2.56h-7.488z"/><path d="m108.144 46.3805v11.7269h-2.642v-18.664h3.083l3.386 10.7085v-10.7085h2.615v18.664h-2.753z"/><path d="m122.734 53.7832v-10.0203c0-1.1287-.496-1.9271-1.624-1.9271-1.102 0-1.597.7984-1.597 1.9271v10.0203c0 1.1287.495 1.9268 1.597 1.9268 1.128 0 1.624-.7981 1.624-1.9268zm-6.359-.4956v-9.0292c0-2.9179 1.431-5.0377 4.735-5.0377 3.331 0 4.762 2.1198 4.762 5.0377v9.0292c0 2.8905-1.431 5.0375-4.762 5.0375-3.304 0-4.735-2.147-4.735-5.0375z"/><path d="m136.91 53.7832v-10.0203c0-1.1287-.495-1.9271-1.624-1.9271-1.101 0-1.596.7984-1.596 1.9271v10.0203c0 1.1287.495 1.9268 1.596 1.9268 1.129 0 1.624-.7981 1.624-1.9268zm-6.358-.4956v-9.0292c0-2.9179 1.431-5.0377 4.734-5.0377 3.331 0 4.763 2.1198 4.763 5.0377v9.0292c0 2.8905-1.432 5.0375-4.763 5.0375-3.303 0-4.734-2.147-4.734-5.0375z"/><path d="m144.48 46.3805v11.7269h-2.642v-18.664h3.083l3.386 10.7085v-10.7085h2.615v18.664h-2.753z"/><path d="m153.124 39.4434h7.488v2.5602h-4.35v5.3403h3.111v2.5326h-3.111v5.6708h4.35v2.56h-7.488z"/><path d="m108.64 72.4866v5.8361h1.376c1.046 0 1.541-.5231 1.541-1.514v-2.808c0-.9911-.467-1.5141-1.568-1.5141zm0-2.3949h1.101c1.018 0 1.486-.5228 1.486-1.5139v-2.285c0-1.0183-.468-1.5138-1.514-1.5138h-1.073zm-3.139-7.8729h4.542c3.139 0 4.185 1.4589 4.185 4.1017v1.8994c0 1.5691-.578 2.56-1.872 2.973 1.569.3579 2.34 1.4041 2.34 3.1107v2.4774c0 2.6428-1.184 4.1015-4.322 4.1015h-4.873z"/><path d="m116.265 62.2188h7.487v2.5602h-4.349v5.3403h3.11v2.5326h-3.11v5.6706h4.349v2.56h-7.487z"/><path d="m131.598 72.6519h-3.029v8.2306h-3.138v-18.6637h3.138v7.9005h3.029v-7.9005h3.165v18.6637h-3.165z"/><path d="m140.104 62.2188h-3.138v18.6637h3.138z"/><path d="m144.976 69.1559v11.7266h-2.642v-18.6637h3.083l3.386 10.7083v-10.7083h2.615v18.6637h-2.753z"/><path d="m158.079 78.3225c1.294 0 1.79-.7707 1.79-1.8994v-9.7725c0-1.1009-.496-1.8718-1.79-1.8718h-1.321v13.5437zm4.928-11.0937v8.6437c0 2.863-1.184 5.01-4.542 5.01h-4.845v-18.6637h4.845c3.358 0 4.542 2.1195 4.542 5.01z"/></g></svg>

<svg width="164" height="96" viewBox="0 0 164 96" fill="none" xmlns="http://www.w3.org/2000/svg">
<path d="M49.1066 8.68652V25.7776C51.0027 25.8996 52.834 26.2603 54.5691 26.8325L60.7063 10.8819C57.0549 9.59231 53.1597 8.82906 49.1066 8.68652Z" fill="#E3243B"/>
<path d="M54.9876 6.79208C56.5502 7.41897 58.3248 6.6606 58.9516 5.0982C59.5782 3.53592 58.82 1.76141 57.2574 1.13451C55.6952 0.507762 53.9206 1.26614 53.2939 2.82835C52.667 4.39093 53.4254 6.16533 54.9876 6.79208Z" fill="#E3243B"/>
<path d="M34.8817 10.8145L41.0611 26.754C42.8334 26.1935 44.7033 25.8521 46.6375 25.762L46.6376 8.67291C42.5294 8.78255 38.5827 9.53084 34.8817 10.8145Z" fill="#19486A"/>
<path d="M39.4059 7.00037C41.0893 6.9941 42.4488 5.62442 42.4425 3.94099C42.4365 2.25776 41.0668 0.898245 39.3834 0.904317C37.6999 0.910587 36.3404 2.28026 36.3467 3.96369C36.353 5.64713 37.7226 7.00644 39.4059 7.00037Z" fill="#19486A"/>
<path d="M32.5767 11.6972C28.8985 13.2415 25.5093 15.3329 22.5043 17.8663L34.0189 30.4933C35.4618 29.3504 37.0499 28.387 38.7526 27.6287L32.5767 11.6972Z" fill="#00689D"/>
<path d="M25.3793 12.7467C26.9474 12.1343 27.7221 10.3666 27.1098 8.7987C26.4973 7.23084 24.7297 6.45593 23.1618 7.06824C21.5936 7.68061 20.819 9.4483 21.4313 11.0162C22.0437 12.5844 23.8114 13.359 25.3793 12.7467Z" fill="#00689D"/>
<path d="M20.6631 19.516C17.7682 22.2827 15.2995 25.4898 13.3578 29.0247L28.6607 36.6476C29.6345 34.9929 30.8156 33.4761 32.1696 32.1335L20.6631 19.516Z" fill="#56C02B"/>
<path d="M14.3738 18.9348C13.2377 17.6928 11.3096 17.6069 10.0676 18.743C8.82537 19.8795 8.73972 21.8075 9.87588 23.0495C11.0123 24.2915 12.9401 24.3771 14.1821 23.241C15.4243 22.1048 15.51 20.1767 14.3738 18.9348Z" fill="#56C02B"/>
<path d="M8.86537 42.7949L25.8972 44.3224C26.2016 42.4002 26.7586 40.5618 27.5268 38.8404L12.2393 31.2239C10.5502 34.8189 9.39208 38.7099 8.86537 42.7949Z" fill="#0A97D9"/>
<path d="M6.35864 32.7124C4.85872 31.9481 3.02349 32.544 2.2587 34.0439C1.49435 35.5439 2.0903 37.3791 3.59013 38.1436C5.09014 38.9082 6.92545 38.3121 7.68989 36.8125C8.4545 35.3124 7.85855 33.4772 6.35864 32.7124Z" fill="#0A97D9"/>
<path d="M25.6479 46.7823L8.63138 45.2588C8.57807 46.1024 8.5453 46.9537 8.5453 47.8119C8.5453 51.0757 8.95081 54.2466 9.70419 57.2768L26.1388 52.5623C25.802 51.0311 25.6216 49.4434 25.6216 47.8119C25.6216 47.468 25.633 47.1241 25.6479 46.7823Z" fill="#3F7E44"/>
<path d="M3.65758 48.8475C1.98302 48.6747 0.485608 49.8921 0.312714 51.5665C0.139976 53.2412 1.35757 54.7387 3.03213 54.9114C4.70647 55.0843 6.2039 53.8667 6.37662 52.1921C6.54951 50.5178 5.33192 49.0203 3.65758 48.8475Z" fill="#3F7E44"/>
<path d="M10.3808 59.6505C11.6246 63.5676 13.4678 67.2174 15.8052 70.4943L29.408 60.1571C28.3242 58.5558 27.4395 56.802 26.8038 54.9375L10.3808 59.6505Z" fill="#BF8B2E"/>
<path d="M7.0305 64.7039C5.40598 65.1462 4.4478 66.8215 4.89019 68.4458C5.33234 70.0699 7.00742 71.028 8.6318 70.5859C10.2559 70.1438 11.2143 68.4684 10.7719 66.8441C10.3298 65.22 8.65469 64.262 7.0305 64.7039Z" fill="#BF8B2E"/>
<path d="M30.9051 62.1212L17.304 72.4582C19.8337 75.5729 22.8296 78.2877 26.1862 80.5044L35.169 65.9736C33.5867 64.8792 32.1528 63.5822 30.9051 62.1212Z" fill="#FD9D24"/>
<path d="M15.9354 78.3466C14.5862 79.3538 14.3092 81.2635 15.3162 82.6125C16.3231 83.9614 18.2332 84.2389 19.5821 83.2318C20.9311 82.225 21.2082 80.315 20.2011 78.966C19.1942 77.6171 17.2845 77.3396 15.9354 78.3466Z" fill="#FD9D24"/>
<path d="M28.286 81.802C31.7438 83.7811 35.5245 85.2469 39.5317 86.1005L42.693 69.3131C40.7797 68.8668 38.9614 68.172 37.2745 67.264L28.286 81.802Z" fill="#DD1367"/>
<path d="M33.2509 86.818C31.8255 85.9227 29.9441 86.3523 29.0487 87.7776C28.1531 89.2031 28.5827 91.0845 30.008 91.9799C31.4335 92.8757 33.315 92.4462 34.2104 91.0204C35.1059 89.5951 34.6764 87.7135 33.2509 86.818Z" fill="#DD1367"/>
<path d="M54.0419 86.4389L50.879 69.6484C49.8405 69.7987 48.7774 69.8804 47.6951 69.8804C46.8262 69.8804 45.968 69.8263 45.1258 69.7282L41.9611 86.5338C43.834 86.8086 45.7475 86.9543 47.6951 86.9543C49.8557 86.9543 51.9764 86.7766 54.0419 86.4389Z" fill="#FD6925"/>
<path d="M48.4602 89.433C46.8078 89.1113 45.2075 90.1901 44.8857 91.8423C44.564 93.4947 45.6428 95.095 47.295 95.4169C48.9474 95.7385 50.5479 94.6599 50.8694 93.0075C51.1912 91.3551 50.1124 89.755 48.4602 89.433Z" fill="#FD6925"/>
<path d="M58.5346 67.0341C56.9046 67.9544 55.1489 68.6766 53.2987 69.1615L56.465 85.9665C60.4039 85.0615 64.1185 83.5592 67.506 81.5616L58.5346 67.0341Z" fill="#A21942"/>
<path d="M63.914 86.1821C62.2566 86.4773 61.1526 88.0603 61.4478 89.7175C61.7431 91.3746 63.3259 92.4789 64.9832 92.1835C66.6404 91.8884 67.7447 90.3056 67.4492 88.6483C67.1541 86.9911 65.5713 85.8868 63.914 86.1821Z" fill="#A21942"/>
<path d="M78.3624 72.0508L64.7485 61.7851C63.5408 63.2551 62.1469 64.5656 60.6043 65.6834L69.5765 80.2098C72.9063 77.9536 75.8706 75.1979 78.3624 72.0508Z" fill="#FCC30B"/>
<path d="M80.7061 78.8826C79.8335 77.443 77.9592 76.9833 76.5196 77.8559C75.0799 78.7285 74.6204 80.603 75.493 82.0423C76.3656 83.482 78.2399 83.9417 79.6796 83.0691C81.1192 82.1965 81.5789 80.3222 80.7061 78.8826Z" fill="#FCC30B"/>
<path d="M68.6087 54.8789C68.0139 56.6263 67.2092 58.2754 66.2202 59.7971L79.8645 70.0886C82.0806 66.9025 83.832 63.3745 85.0284 59.5974L68.6087 54.8789Z" fill="#26BDE2"/>
<path d="M89.4849 65.2931C88.1523 64.2648 86.2381 64.5113 85.2098 65.8439C84.1813 67.1766 84.4281 69.0905 85.7607 70.1191C87.0933 71.1475 89.0075 70.9009 90.0358 69.5684C91.0643 68.2356 90.8178 66.3217 89.4849 65.2931Z" fill="#26BDE2"/>
<path d="M69.7537 47.0121C69.763 47.2784 69.7691 47.5424 69.7691 47.8079C69.7691 49.4191 69.5958 50.9898 69.2633 52.5033L85.696 57.2247C86.4452 54.2077 86.8448 51.0532 86.8448 47.8079C86.8448 47.0021 86.818 46.2021 86.7686 45.4053L69.7537 47.0121Z" fill="#FF3A21"/>
<path d="M92.9538 49.0748C91.34 48.5956 89.6432 49.5152 89.1641 51.129C88.6847 52.7428 89.6046 54.4394 91.2184 54.9188C92.8323 55.3977 94.5288 54.4782 95.0078 52.8643C95.4872 51.2506 94.5676 49.554 92.9538 49.0748Z" fill="#FF3A21"/>
<path d="M68.0004 39.1493C68.7311 40.8539 69.2502 42.6645 69.5317 44.5529L86.5444 42.9472C86.0425 38.9193 84.9275 35.0788 83.2942 31.5254L68.0004 39.1493Z" fill="#C5192D"/>
<path d="M93.6534 35.2828C93.5188 33.6049 92.0496 32.3535 90.3715 32.4881C88.6936 32.6223 87.4424 34.0918 87.5768 35.7696C87.7111 37.4479 89.1805 38.6992 90.8586 38.5647C92.5366 38.4301 93.7879 36.9608 93.6534 35.2828Z" fill="#C5192D"/>
<path d="M75.0488 19.8301L63.5095 32.4253C64.8239 33.7754 65.9669 35.2917 66.9029 36.9404L82.1946 29.3179C80.3005 25.798 77.8845 22.6002 75.0488 19.8301Z" fill="#4C9F38"/>
<path d="M86.318 19.8425C85.5879 18.3256 83.7665 17.6878 82.2496 18.4179C80.7329 19.1479 80.0948 20.9695 80.8252 22.4862C81.5553 24.0031 83.3767 24.6409 84.8931 23.9108C86.4103 23.1808 87.0479 21.3595 86.318 19.8425Z" fill="#4C9F38"/>
<path d="M56.8682 27.7331C58.6105 28.5314 60.2308 29.5501 61.6934 30.7561L73.2326 18.1582C70.1936 15.5373 66.7472 13.3747 63.0062 11.7778L56.8682 27.7331Z" fill="#DDA63A"/>
<path d="M73.3492 7.67081C72.1165 6.52396 70.188 6.59375 69.0414 7.82609C67.8949 9.05857 67.9643 10.9873 69.1966 12.1339C70.4291 13.2806 72.3579 13.2109 73.5046 11.9785C74.651 10.746 74.5816 8.81754 73.3492 7.67081Z" fill="#DDA63A"/>
<path d="M105.502 16.665H108.64V32.769H112.384V35.329H105.502V16.665Z" fill="black"/>
<path d="M113.539 16.665H121.027V19.2253H116.678V24.5656H119.788V27.0982H116.678V32.769H121.027V35.329H113.539V16.665Z" fill="black"/>
<path d="M125.734 29.4106H128.239L127 21.9231H126.973L125.734 29.4106ZM121.798 35.3292L125.321 16.665H128.9L132.451 35.3292H129.23L128.652 31.9155H125.321L124.771 35.3292H121.798Z" fill="black"/>
<path d="M142.141 16.665L138.59 35.329H135.176L131.625 16.665H134.818L136.965 29.6858H136.993L139.195 16.665H142.141Z" fill="black"/>
<path d="M143.159 16.665H150.647V19.2253H146.297V24.5656H149.408V27.0982H146.297V32.769H150.647V35.329H143.159V16.665Z" fill="black"/>
<path d="M108.144 46.3805V58.1074H105.502V39.4434H108.585L111.971 50.1519V39.4434H114.586V58.1074H111.833L108.144 46.3805Z" fill="black"/>
<path d="M122.734 53.7832V43.7629C122.734 42.6342 122.238 41.8358 121.11 41.8358C120.008 41.8358 119.513 42.6342 119.513 43.7629V53.7832C119.513 54.9119 120.008 55.71 121.11 55.71C122.238 55.71 122.734 54.9119 122.734 53.7832ZM116.375 53.2876V44.2584C116.375 41.3405 117.806 39.2207 121.11 39.2207C124.441 39.2207 125.872 41.3405 125.872 44.2584V53.2876C125.872 56.1781 124.441 58.3251 121.11 58.3251C117.806 58.3251 116.375 56.1781 116.375 53.2876Z" fill="black"/>
<path d="M136.91 53.7832V43.7629C136.91 42.6342 136.415 41.8358 135.286 41.8358C134.185 41.8358 133.69 42.6342 133.69 43.7629V53.7832C133.69 54.9119 134.185 55.71 135.286 55.71C136.415 55.71 136.91 54.9119 136.91 53.7832ZM130.552 53.2876V44.2584C130.552 41.3405 131.983 39.2207 135.286 39.2207C138.617 39.2207 140.049 41.3405 140.049 44.2584V53.2876C140.049 56.1781 138.617 58.3251 135.286 58.3251C131.983 58.3251 130.552 56.1781 130.552 53.2876Z" fill="black"/>
<path d="M144.48 46.3805V58.1074H141.838V39.4434H144.921L148.307 50.1519V39.4434H150.922V58.1074H148.169L144.48 46.3805Z" fill="black"/>
<path d="M153.124 39.4434H160.612V42.0036H156.262V47.3439H159.373V49.8765H156.262V55.5473H160.612V58.1073H153.124V39.4434Z" fill="black"/>
<path d="M108.64 72.4866V78.3227H110.016C111.062 78.3227 111.557 77.7996 111.557 76.8087V74.0007C111.557 73.0096 111.09 72.4866 109.989 72.4866H108.64ZM108.64 70.0917H109.741C110.759 70.0917 111.227 69.5689 111.227 68.5778V66.2928C111.227 65.2745 110.759 64.779 109.713 64.779H108.64V70.0917ZM105.501 62.2188H110.043C113.182 62.2188 114.228 63.6777 114.228 66.3205V68.2199C114.228 69.789 113.65 70.7799 112.356 71.1929C113.925 71.5508 114.696 72.597 114.696 74.3036V76.781C114.696 79.4238 113.512 80.8825 110.374 80.8825H105.501V62.2188Z" fill="black"/>
<path d="M116.265 62.2188H123.752V64.779H119.403V70.1193H122.513V72.6519H119.403V78.3225H123.752V80.8825H116.265V62.2188Z" fill="black"/>
<path d="M131.598 72.6519H128.569V80.8825H125.431V62.2188H128.569V70.1193H131.598V62.2188H134.763V80.8825H131.598V72.6519Z" fill="black"/>
<path d="M140.104 62.2188H136.966V80.8825H140.104V62.2188Z" fill="black"/>
<path d="M144.976 69.1559V80.8825H142.334V62.2188H145.417L148.803 72.9271V62.2188H151.418V80.8825H148.665L144.976 69.1559Z" fill="black"/>
<path d="M158.079 78.3225C159.373 78.3225 159.869 77.5518 159.869 76.4231V66.6506C159.869 65.5497 159.373 64.7788 158.079 64.7788H156.758V78.3225H158.079ZM163.007 67.2288V75.8725C163.007 78.7355 161.823 80.8825 158.465 80.8825H153.62V62.2188H158.465C161.823 62.2188 163.007 64.3383 163.007 67.2288Z" fill="black"/>
</svg>
